X:246
T:Le Cotillon vert
R:Schottiche/Valse
A:Morvan
O:France
M:C
L:1/8
Q:1/4=180
K:C
edcB c2 de|f2 df e2c2|edcB c2de|f2 d2 c4:|
M:3/4
gag|fde|fgf|e2c|efe|dBc|def|g3|
gag|fde|fgf|e2c|efe|dBc|ded|c3:||
